packages/ui/public/icons/asterix.svg

<svg width="10" height="10" viewBox="0 0 10 10" fill="none" xmlns="http://www.w3.org/2000/svg">
<path d="M3.80114 9.91193L3.96307 6.31534L0.928977 8.26705L0 6.64773L3.22159 5.00284L0 3.35795L0.928977 1.73864L3.96307 3.69034L3.80114 0.09375H5.65057L5.48864 3.69034L8.52273 1.73864L9.4517 3.35795L6.23011 5.00284L9.4517 6.64773L8.52273 8.26705L5.48864 6.31534L5.65057 9.91193H3.80114Z" fill="#C943A8"/>
</svg>

<svg width="10" height="10" fill="none" xmlns="http://www.w3.org/2000/svg"><path d="m3.801 9.912.162-3.597L.93 8.267 0 6.647l3.222-1.644L0 3.358l.929-1.62L3.963 3.69 3.801.094h1.85L5.489 3.69 8.523 1.74l.929 1.619L6.23 5.003l3.222 1.645-.93 1.619L5.49 6.315l.162 3.597H3.8Z" fill="#C943A8"/></svg>
